app/dist/common/images/khosla-ventures-acquisition-co.svg

<svg height="18" viewBox="0 0 18 18" width="18" xmlns="http://www.w3.org/2000/svg"><path d="m0 0h18v18h-18z" fill="#f0f3fa"/><path d="m7.67 13h1.47l-2.84-4.08 2.37-2.92h-1.35l-2.32 2.76v-4.76h-1v9h1v-3.7l1.1 1.5c.53.72 1.07 1.44 1.57 2.2zm2.75-7h-1.42l2.24 7h1.52l2.24-7h-1.29l-1.71 6.1a23.3 23.3 0 0 0 -.73-3.1z" fill="#8a0cc9"/></svg>

<!-- by TradingView --><svg width="18" height="18" viewBox="0 0 18 18" xmlns="http://www.w3.org/2000/svg"><path fill="#F0F3FA" d="M0 0h18v18H0z"/><path d="M7.67 13h1.47L6.3 8.92 8.67 6H7.32L5 8.76V4H4v9h1V9.3l1.1 1.5c.53.72 1.07 1.44 1.57 2.2Zm2.75-7H9l2.24 7h1.52L15 6h-1.29L12 12.1A23.3 23.3 0 0 0 11.27 9L10.42 6Z" fill="#8A0CC9"/></svg>
